X:144
T:Middlesex Farmer, The
M: C|
L:1/8
B:Thompson's Compleat Collection of 200 Favourite Country Dances, vol. 3 (London, 1773)
Z:Transcribed and edited by Flynn Titford-Mock, 2007
Z:abc's:AK/Fiddler's Companion
K:D
D | F(AA)B defd | dBAB efeE | FAAB defg | (f/g/a) ef dDD :|
|: a | fdad fgab | fdad f(ee)a | fdad fgab | fdec dDD :|

